images/white-star.svg

<svg fill="none" height="12" viewBox="0 0 13 12" width="13" xmlns="http://www.w3.org/2000/svg"><path clip-rule="evenodd" d="m6.5 9.32827-1.67416.92543c-.73057.4039-1.60514-.2123-1.47075-1.03615l.33241-2.03784-1.45342-1.48964c-.56841-.58258-.23988-1.56395.56472-1.68688l1.96298-.29992.83298-1.77466c.35992-.7668 1.45056-.7668 1.81048 0l.83298 1.77466 1.96298.29992c.8046.12293 1.1331 1.1043.5647 1.68688l-1.4534 1.48964.33241 2.03784c.13439.82385-.74018 1.44005-1.47075 1.03615z" fill="#f9f9f9" fill-rule="evenodd"/></svg>

<svg width="13" height="12" viewBox="0 0 13 12" fill="none" xmlns="http://www.w3.org/2000/svg">
<path fill-rule="evenodd" clip-rule="evenodd" d="M6.5 9.32827L4.82584 10.2537C4.09527 10.6576 3.2207 10.0414 3.35509 9.21755L3.6875 7.17971L2.23408 5.69007C1.66567 5.10749 1.9942 4.12612 2.7988 4.00319L4.76178 3.70327L5.59476 1.92861C5.95468 1.16181 7.04532 1.16181 7.40524 1.92861L8.23822 3.70327L10.2012 4.00319C11.0058 4.12612 11.3343 5.10749 10.7659 5.69007L9.3125 7.17971L9.64491 9.21755C9.7793 10.0414 8.90473 10.6576 8.17416 10.2537L6.5 9.32827Z" fill="#F9F9F9"/>
</svg>
